docs/svgs/bulb-flood.svg

<svg viewBox="0 0 24 24" height="24px" width="24px" fill="#44739e" xmlns="http://www.w3.org/2000/svg"><title>hue:bulb-flood</title><desc>Source: https://github.com/arallsopp/hass-hue-icons</desc><path d="M 6.128906 7.5625 C 7.664062 8.027344 9.878906 8.25 12 8.25 C 14.121094 8.25 16.335938 8.027344 17.871094 7.5625 L 15.15625 10.773438 C 14.894531 11.082031 14.746094 11.46875 14.734375 11.875 L 14.625 15.710938 C 14.613281 16.097656 14.308594 16.410156 13.921875 16.4375 C 13.332031 16.476562 12.691406 16.5 12 16.5 C 11.308594 16.5 10.671875 16.476562 10.078125 16.4375 C 9.691406 16.410156 9.386719 16.097656 9.375 15.710938 L 9.265625 11.875 C 9.253906 11.46875 9.105469 11.082031 8.839844 10.773438 Z M 18.75 4.988281 L 18.75 5.703125 C 18.75 5.96875 18.703125 6.226562 18.613281 6.472656 C 17.664062 6.957031 15.40625 7.5 12 7.5 C 8.59375 7.5 6.335938 6.957031 5.386719 6.472656 C 5.296875 6.226562 5.25 5.96875 5.25 5.703125 L 5.25 4.988281 C 5.25 4.855469 5.296875 4.71875 5.386719 4.589844 C 6.007812 3.683594 8.738281 3 12 3 C 15.726562 3 18.75 3.890625 18.75 4.988281 Z M 9.75 17.148438 C 10.53125 17.222656 11.390625 17.25 12 17.25 C 12.609375 17.25 13.46875 17.222656 14.25 17.148438 L 13.875 19.476562 C 13.855469 19.640625 13.773438 19.792969 13.648438 19.90625 L 13.300781 20.226562 C 13.277344 20.246094 13.253906 20.269531 13.234375 20.292969 L 12.863281 20.730469 C 12.722656 20.902344 12.503906 21 12.273438 21 L 11.726562 21 C 11.496094 21 11.277344 20.902344 11.136719 20.730469 L 10.765625 20.292969 C 10.746094 20.269531 10.722656 20.246094 10.699219 20.226562 L 10.351562 19.90625 C 10.226562 19.792969 10.144531 19.640625 10.125 19.476562 Z M 9.75 17.148438 "/></svg>

<svg viewBox="0 0 24 24" height="24px" width="24px" fill="#44739e" xmlns="http://www.w3.org/2000/svg"><title>hue:bulb-flood</title><desc>Source: https://github.com/arallsopp/hass-hue-icons</desc><path d="M6.13,7.56C7.66,8.03,9.88,8.25,12,8.25s4.34-0.22,5.87-0.69l-2.71,3.21c-0.26,0.31-0.41,0.7-0.42,1.1 l-0.11,3.84c-0.01,0.39-0.32,0.7-0.7,0.73c-0.59,0.04-1.23,0.06-1.92,0.06s-1.33-0.02-1.92-0.06c-0.39-0.03-0.69-0.34-0.7-0.73 l-0.11-3.84c-0.01-0.41-0.16-0.79-0.43-1.1L6.13,7.56z M18.75,4.99V5.7c0,0.27-0.05,0.52-0.14,0.77C17.66,6.96,15.41,7.5,12,7.5 S6.34,6.96,5.39,6.47C5.3,6.23,5.25,5.97,5.25,5.7V4.99c0-0.13,0.05-0.27,0.14-0.4C6.01,3.68,8.74,3,12,3 C15.73,3,18.75,3.89,18.75,4.99z M9.75,17.15c0.78,0.07,1.64,0.1,2.25,0.1s1.47-0.03,2.25-0.1l-0.38,2.33 c-0.02,0.16-0.1,0.32-0.23,0.43l-0.35,0.32c-0.02,0.02-0.05,0.04-0.07,0.07l-0.37,0.44C12.72,20.9,12.5,21,12.27,21h-0.55 c-0.23,0-0.45-0.1-0.59-0.27l-0.37-0.44c-0.02-0.02-0.04-0.05-0.07-0.07l-0.35-0.32c-0.12-0.11-0.21-0.27-0.23-0.43L9.75,17.15z"/></svg>
